assets/features/channel/southeast-asia/duitnow.svg

<svg width="80" height="80" viewBox="0 0 80 80" fill="none" xmlns="http://www.w3.org/2000/svg">
<rect width="80" height="80" rx="8" fill="#E52561"/>
<path d="M40 20C28.9543 20 20 28.9543 20 40V60H40C51.0457 60 60 51.0457 60 40C60 28.9543 51.0456 20 40 20Z" fill="white"/>
<path d="M39.9999 28.936C33.8894 28.936 28.9358 33.8895 28.9358 40.0002V51.0643H39.9999C46.1104 51.0643 51.0641 46.1108 51.0641 40.0002C51.0641 33.8895 46.1104 28.936 39.9999 28.936ZM39.9999 44.9423H35.0577V40C35.0577 37.2705 37.2704 35.0578 39.9999 35.0578C42.7294 35.0578 44.9422 37.2705 44.9422 40C44.9422 42.7295 42.7294 44.9423 39.9999 44.9423Z" fill="#E52561"/>
</svg>

<svg xmlns="http://www.w3.org/2000/svg" width="80" height="80" fill="none" viewBox="0 0 80 80"><rect width="80" height="80" fill="#e52561" rx="8"/><path fill="#fff" d="M40 20c-11.046 0-20 8.954-20 20v20h20c11.046 0 20-8.954 20-20s-8.954-20-20-20"/><path fill="#e52561" d="M40 28.936c-6.11 0-11.064 4.953-11.064 11.064v11.064H40c6.11 0 11.064-4.953 11.064-11.064S46.11 28.936 40 28.936m0 16.006h-4.942V40A4.942 4.942 0 1 1 40 44.942"/></svg>
